X:218
T:Steirische Jodler und Taenze Nr. 1 - 48 (16.)
C:traditionell
A:Salzkammergut
S:MIDI erhalten von Christian Amon. Nach einer kopie im besitz von Johann Stoeckl eines manuscriptes. Stoeckl(zitiert von Amon): "diese sammlung wurde 1935 im hause der familie Hohenlohe-Schillingfuerst gefunden. Sie wurde von einem der beiden brueder Steinegger 1866 verfasst. Die originale sind im Ausseer Kammerhofmuseum".
M:3/4
L:1/8
K:G
V:1
a |\
gb d3 g | fa d3 g | fa d^c df | gb d3 f |\
gb d3 g | fa d3 g | fa d^c df | g4 z |*
V:2
d |\
dg B3 d | df c3 d | df cB cd | dg B3 d |\
dg B3 d | df c3 d | df cB cd | B4 z |*
